outputs/icons/file/cloud_sync_round.svg

<svg xmlns="http://www.w3.org/2000/svg" width="1200" height="1200" fill="none"><path fill="#000" fill-rule="evenodd" d="M625 250c159.25 0 291.83 113.32 321.58 264.26C1060.325 522.14 1150 615.755 1150 731.25 1150 852 1052 950 931.25 950H362.5C217.688 950 100 832.31 100 687.5c0-135.185 102.394-246.742 234.082-260.742C388.77 321.759 498.563 250 625 250m156.25 314.11c-4.04-4.375-10.855-4.35-14.895-.195L707.03 624.95c-6.77 7.005-2.085 18.8 7.47 18.8h38.04C752.535 716.15 695.35 775 625 775c-16.78 0-33.145-3.28-47.805-9.62-7.65-3.28-16.38-.875-22.115 5.03-10.83 11.155-7.005 29.93 7.225 35.84 19.34 8.095 40.595 12.5 62.695 12.5 93.945 0 170.065-78.315 170.07-175h38.035c9.56-.005 14.22-11.825 7.42-18.605zM625 468.75c-93.945.005-170.019 78.315-170.019 175h-38.087c-9.548.02-14.217 11.83-7.421 18.605l59.326 61.035c4.25 4.35 10.843 4.36 15.088 0l59.278-61.035c6.585-6.775 1.93-18.585-7.62-18.605h-38.084c0-72.405 57.189-131.245 127.539-131.25 16.79 0 33.185 3.275 47.85 9.62 7.645 3.27 16.335.865 22.07-5.03 10.84-11.155 7.015-29.982-7.225-35.889C668.36 473.112 647.1 468.75 625 468.75"/></svg>

<svg width="1200" height="1200" viewBox="0 0 1200 1200" fill="none" xmlns="http://www.w3.org/2000/svg"><path fill-rule="evenodd" d="M625 250C784.25 250 916.83 363.32 946.58 514.26C1060.325 522.14 1150 615.755 1150 731.25C1150 852 1052 950 931.25 950H362.5C217.688 950 100 832.31 100 687.5C100 552.315 202.394 440.758 334.082 426.758C388.77 321.759 498.563 250 625 250ZM781.25 564.11C777.21 559.735 770.395 559.76 766.355 563.915L707.03 624.95C700.26 631.955 704.945 643.75 714.5 643.75H752.54C752.535 716.15 695.35 775 625 775C608.22 775 591.855 771.72 577.195 765.38C569.545 762.1 560.815 764.505 555.08 770.41C544.25 781.565 548.075 800.34 562.305 806.25C581.645 814.345 602.9 818.75 625 818.75C718.945 818.75 795.065 740.435 795.07 643.75H833.105C842.665 643.745 847.325 631.925 840.525 625.145L781.25 564.11ZM625 468.75C531.055 468.755 454.981 547.065 454.981 643.75H416.894C407.346 643.77 402.677 655.58 409.473 662.355L468.799 723.39C473.049 727.74 479.642 727.75 483.887 723.39L543.165 662.355C549.75 655.58 545.095 643.77 535.545 643.75H497.461C497.461 571.345 554.65 512.505 625 512.5C641.79 512.5 658.185 515.775 672.85 522.12C680.495 525.39 689.185 522.985 694.92 517.09C705.76 505.935 701.935 487.108 687.695 481.201C668.36 473.112 647.1 468.75 625 468.75Z" fill="black"/></svg>
